public/assets/Switch.svg

<svg width="58" height="43" viewBox="0 0 58 43" fill="none" xmlns="http://www.w3.org/2000/svg">
<g id="Switch">
<path id="Background" fill-rule="evenodd" clip-rule="evenodd" d="M16.857 3.09215C18.597 2.99215 20.335 3.00015 22.075 3.00015C22.087 3.00015 30.892 3.00015 30.892 3.00015C32.666 3.00015 34.404 2.99215 36.143 3.09215C37.724 3.18215 39.264 3.37415 40.797 3.80315C44.024 4.70515 46.842 6.58915 48.879 9.26015C50.904 11.9142 52 15.1632 52 18.4992C52 21.8392 50.904 25.0862 48.879 27.7402C46.842 30.4102 44.024 32.2952 40.797 33.1972C39.264 33.6262 37.724 33.8172 36.143 33.9082C34.404 34.0082 32.666 33.9992 30.926 33.9992C30.914 33.9992 22.107 34.0002 22.107 34.0002C20.335 33.9992 18.597 34.0082 16.857 33.9082C15.277 33.8172 13.737 33.6262 12.204 33.1972C8.977 32.2952 6.159 30.4102 4.122 27.7402C2.097 25.0862 1 21.8392 1 18.5002C1 15.1632 2.097 11.9142 4.122 9.26015C6.159 6.58915 8.977 4.70515 12.204 3.80315C13.737 3.37415 15.277 3.18215 16.857 3.09215Z" fill="#B46AE1"/>
<g id="Knob" filter="url(#filter0_dd_7_357)">
<path fill-rule="evenodd" clip-rule="evenodd" d="M36.5 32C43.9558 32 50 25.9558 50 18.5C50 11.0442 43.9558 5 36.5 5C29.0442 5 23 11.0442 23 18.5C23 25.9558 29.0442 32 36.5 32Z" fill="white"/>
</g>
</g>
<defs>
<filter id="filter0_dd_7_357" x="15" y="0" width="43" height="43" filterUnits="userSpaceOnUse" color-interpolation-filters="sRGB">
<feFlood flood-opacity="0" result="BackgroundImageFix"/>
<feColorMatrix in="SourceAlpha" type="matrix" values="0 0 0 0 0 0 0 0 0 0 0 0 0 0 0 0 0 0 127 0" result="hardAlpha"/>
<feOffset dy="3"/>
<feGaussianBlur stdDeviation="0.5"/>
<feColorMatrix type="matrix" values="0 0 0 0 0 0 0 0 0 0 0 0 0 0 0 0 0 0 0.06 0"/>
<feBlend mode="normal" in2="BackgroundImageFix" result="effect1_dropShadow_7_357"/>
<feColorMatrix in="SourceAlpha" type="matrix" values="0 0 0 0 0 0 0 0 0 0 0 0 0 0 0 0 0 0 127 0" result="hardAlpha"/>
<feOffset dy="3"/>
<feGaussianBlur stdDeviation="4"/>
<feColorMatrix type="matrix" values="0 0 0 0 0 0 0 0 0 0 0 0 0 0 0 0 0 0 0.15 0"/>
<feBlend mode="normal" in2="effect1_dropShadow_7_357" result="effect2_dropShadow_7_357"/>
<feBlend mode="normal" in="SourceGraphic" in2="effect2_dropShadow_7_357" result="shape"/>
</filter>
</defs>
</svg>

<svg width="58" height="43" fill="none" xmlns="http://www.w3.org/2000/svg"><path fill-rule="evenodd" clip-rule="evenodd" d="M16.857 3.092c1.74-.1 3.478-.092 5.218-.092h8.817c1.774 0 3.512-.008 5.251.092 1.581.09 3.121.282 4.654.711 3.227.902 6.045 2.786 8.082 5.457a15.236 15.236 0 0 1 0 18.48c-2.037 2.67-4.855 4.555-8.082 5.457-1.533.43-3.073.62-4.654.711-1.739.1-3.477.091-5.217.091L22.107 34c-1.772 0-3.51.008-5.25-.092-1.58-.09-3.12-.282-4.653-.71-3.227-.903-6.045-2.788-8.082-5.458a15.234 15.234 0 0 1 0-18.48c2.037-2.67 4.855-4.555 8.082-5.457 1.533-.429 3.073-.62 4.653-.71Z" fill="#B46AE1"/><g filter="url(#a)"><path fill-rule="evenodd" clip-rule="evenodd" d="M36.5 32C43.956 32 50 25.956 50 18.5S43.956 5 36.5 5 23 11.044 23 18.5 29.044 32 36.5 32Z" fill="#fff"/></g><defs><filter id="a" x="15" y="0" width="43" height="43" filterUnits="userSpaceOnUse" color-interpolation-filters="sRGB"><feFlood flood-opacity="0" result="BackgroundImageFix"/><feColorMatrix in="SourceAlpha" values="0 0 0 0 0 0 0 0 0 0 0 0 0 0 0 0 0 0 127 0" result="hardAlpha"/><feOffset dy="3"/><feGaussianBlur stdDeviation=".5"/><feColorMatrix values="0 0 0 0 0 0 0 0 0 0 0 0 0 0 0 0 0 0 0.06 0"/><feBlend in2="BackgroundImageFix" result="effect1_dropShadow_7_357"/><feColorMatrix in="SourceAlpha" values="0 0 0 0 0 0 0 0 0 0 0 0 0 0 0 0 0 0 127 0" result="hardAlpha"/><feOffset dy="3"/><feGaussianBlur stdDeviation="4"/><feColorMatrix values="0 0 0 0 0 0 0 0 0 0 0 0 0 0 0 0 0 0 0.15 0"/><feBlend in2="effect1_dropShadow_7_357" result="effect2_dropShadow_7_357"/><feBlend in="SourceGraphic" in2="effect2_dropShadow_7_357" result="shape"/></filter></defs></svg>
